X:1
T:Seven Daily Exercises for flute, Op.5, No.1
T:M.A.Reichert
L:1/8
M:6/8
K:C
V:1 treble nm="Oboe"
V:1
|: (c/G/)A/B/c/d/ e/B/c/d/e/f/ | g/e/f/g/a/b/ c'/b/a/g/f/e/ | (a/g/)f/e/d/c/ B/A/G/F/E/D/ | %3
 C/E/G/c/e/g/ c' z2 |] (a/e/)^f/^g/a/b/ c'/g/a/b/c'/d'/ | %5
 e'/c'/d'/e'/^f'/^g'/ a'/=g'/=f'/e'/d'/c'/ | (f'/e'/)d'/c'/b/a/ g/f/e/d/c/B/ | %7
 A/c/e/a/c'/e'/ a' z2 ||[K:F] (f/c/)d/e/f/g/ a/e/f/g/a/b/ | c'/a/b/c'/d'/e'/ f'/e'/d'/c'/b/a/ | %10
 (d'/c'/)b/a/g/f/ e/d/c/B/A/G/ | F/A/c/f/a/c'/ f' z2 | (d/A/)B/^c/d/e/ f/c/d/e/f/g/ | %13
 a/f/g/a/=b/^c'/ d'/c'/_b/a/g/f/ | (b/a/)g/f/e/d/ c/B/A/G/F/E/ | D/F/A/d/f/a/ d' z2 || %16
[K:Bb] (b/f/)g/a/b/c'/ d'/a/b/c'/d'/e'/ | f'/d'/e'/f'/g'/a'/ b'/a'/g'/f'/e'/d'/ | %18
 (g'/f'/)e'/d'/c'/b/ a/g/f/e/d/c/ | B/d/f/b/d'/f'/ b' z2 | (g/d/)=e/^f/g/a/ b/f/g/a/b/c'/ | %21
 d'/b/c'/d'/=e'/^f'/ g'/=f'/_e'/d'/c'/b/ | (e'/d'/)c'/b/a/g/ f/e/d/c/B/A/ | G/B/d/g/b/d'/ g' z2 || %24
[K:Eb] (e/B/)c/d/e/f/ g/d/e/f/g/a/ | b/g/a/b/c'/d'/ e'/d'/c'/b/a/g/ | %26
 (c'/b/)a/g/f/e/ d/c/B/A/G/F/ | E/G/B/e/g/b/ e' z2 | (c/G/)=A/=B/c/d/ e/B/c/d/e/f/ | %29
 g/e/f/g/=a/=b/ c'/_b/_a/g/f/e/ | (a/g/)f/e/d/c/ B/A/G/F/E/D/ | C/E/G/c/e/g/ c' z2 || %32
[K:Ab] (a/e/)f/g/a/b/ c'/g/a/b/c'/d'/ | e'/c'/d'/e'/f'/g'/ a'/g'/f'/e'/d'/c'/ | %34
 (f'/e'/)d'/c'/b/a/ g/f/e/d/c/B/ | A/c/e/a/c'/e'/ a' z2 | (f/c/)=d/=e/f/g/ a/e/f/g/a/b/ | %37
 c'/a/b/c'/=d'/=e'/ f'/_e'/_d'/c'/b/a/ | (d'/c'/)b/a/g/f/ e/d/c/B/A/G/ | F/A/c/f/a/c'/ f' z2 || %40
[K:Db] (d/A/)B/c/d/e/ f/c/d/e/f/g/ | a/f/g/a/b/c'/ d'/c'/b/a/g/f/ | (b/a/)g/f/e/d/ c/B/A/G/F/E/ | %43
 D/F/A/d/f/a/ d' z2 | (b/f/)=g/=a/b/c'/ d'/a/b/c'/d'/e'/ | %45
 f'/d'/e'/f'/=g'/=a'/ b'/_a'/_g'/f'/e'/d'/ | (g'/f'/)e'/d'/c'/b/ a/g/f/e/d/c/ | %47
 B/d/f/b/d'/f'/ b' z2 ||[K:Gb] (g/d/)e/f/g/a/ b/f/g/a/b/_c'/ | %49
 d'/b/_c'/d'/e'/f'/ g'/f'/e'/d'/_c'/b/ | (e'/d'/)_c'/b/a/g/ f/e/d/_c/B/A/ | G/B/d/g/b/d'/ g' z2 | %52
 (e/B/)=c/=d/e/f/ g/d/e/f/g/a/ | b/g/a/b/=c'/=d'/ e'/_d'/_c'/b/a/g/ | %54
 (_c'/b/)a/g/f/e/ d/_c/B/A/G/F/ | E/G/B/e/g/b/ e' z2 ||[K:B] (b/f/)g/a/b/c'/ d'/a/b/c'/d'/e'/ | %57
 f'/d'/e'/f'/g'/a'/ b'/a'/g'/f'/e'/d'/ | (g'/f'/)e'/d'/c'/b/ a/g/f/e/d/c/ | B/d/f/b/d'/f'/ b' z2 | %60
 (g/d/)^e/^^f/g/a/ b/=g/^g/a/b/c'/ | d'/b/c'/d'/^e'/^^f'/ g'/^f'/=e'/d'/c'/b/ | %62
 (e'/d'/)c'/b/a/g/ f/e/d/c/B/A/ | G/B/d/g/b/d'/ g' z2 ||[K:E] (e/B/)c/d/e/f/ g/d/e/f/g/a/ | %65
 b/g/a/b/c'/d'/ e'/d'/c'/b/a/g/ | (c'/b/)a/g/f/e/ d/c/B/A/G/F/ | E/G/B/e/g/b/ e' z2 | %68
 (c/G/)^A/^B/c/d/ e/^B/c/d/e/f/ | g/e/f/g/^a/^b/ c'/=b/=a/g/f/e/ | (a/g/)f/e/d/c/ B/A/G/F/E/D/ | %71
 C/E/G/c/e/g/ c' z2 ||[K:A] (a/e/)f/g/a/b/ c'/g/a/b/c'/d'/ | %73
 e'/c'/d'/e'/f'/g'/ a'/g'/f'/e'/d'/c'/ | (f'/e'/)d'/c'/b/a/ g/f/e/d/c/B/ | A/c/e/a/c'/e'/ a' z2 | %76
 (f/c/)^d/^e/f/g/ a/^e/f/g/a/b/ | c'/a/b/c'/^d'/^e'/ f'/=e'/=d'/c'/b/a/ | %78
 (d'/c'/)b/a/g/f/ e/d/c/B/A/G/ | F/A/c/f/a/c'/ f' z2 ||[K:D] (d/A/)B/c/d/e/ f/c/d/e/f/g/ | %81
 a/f/g/a/b/c'/ d'/c'/b/a/g/f/ | (b/a/)g/f/e/d/ c/B/A/G/F/E/ | D/F/A/d/f/a/ d' z2 | %84
 (b/f/)^g/^a/b/c'/ d'/a/b/c'/d'/e'/ | f'/d'/e'/f'/^g'/^a'/ b'/=a'/=g'/f'/e'/d'/ | %86
 (g'/f'/)e'/d'/c'/b/ a/g/f/e/d/c/ | B/d/f/b/d'/f'/ b' z2 ||[K:G] (g/d/)e/f/g/a/ b/f/g/a/b/c'/ | %89
 d'/b/c'/d'/e'/f'/ g'/f'/e'/d'/c'/b/ | (e'/d'/)c'/b/a/g/ f/e/d/c/B/A/ | G/B/d/g/b/d'/ g' z2 | %92
 (e/B/)^c/^d/e/f/ g/d/e/f/g/a/ | b/g/a/b/^c'/^d'/ e'/=d'/=c'/b/a/g/ | %94
 (c'/b/)a/g/f/e/ d/c/B/A/G/F/ | E/G/B/e/g/b/ e' z2!D.C.! :| %96

